austria/municipalities/70338.svg

<?xml version="1.0" encoding="UTF-8"?>
<!DOCTYPE svg PUBLIC "-//W3C//DTD SVG 1.1//EN" "http://www.w3.org/Graphics/SVG/1.1/DTD/svg11.dtd">
<svg xmlns="http://www.w3.org/2000/svg" version="1.1" width="166px" height="192px" style="shape-rendering:geometricPrecision; text-rendering:geometricPrecision; image-rendering:optimizeQuality; fill-rule:evenodd; clip-rule:evenodd" xmlns:xlink="http://www.w3.org/1999/xlink">
<g><path style="opacity:1" fill="#080603" d="M -0.5,-0.5 C 54.8333,-0.5 110.167,-0.5 165.5,-0.5C 165.5,39.1667 165.5,78.8333 165.5,118.5C 157.519,159.148 133.186,183.481 92.5,191.5C 85.5,191.5 78.5,191.5 71.5,191.5C 30.4846,182.818 6.4846,157.818 -0.5,116.5C -0.5,77.5 -0.5,38.5 -0.5,-0.5 Z"/></g>
<g><path style="opacity:1" fill="#e6a51c" d="M 3.5,3.5 C 56.1667,3.5 108.833,3.5 161.5,3.5C 161.667,41.8348 161.5,80.1681 161,118.5C 156.719,146.258 142.219,166.591 117.5,179.5C 116.334,159.508 116.167,139.508 117,119.5C 123.047,112.335 125.88,104.002 125.5,94.5C 125.741,82.0488 121.575,71.3821 113,62.5C 112.502,59.1832 112.335,55.8499 112.5,52.5C 126.62,51.5537 132.12,44.2203 129,30.5C 123.718,21.1704 116.218,19.0038 106.5,24C 99.9107,30.4087 99.9107,36.742 106.5,43C 107.873,43.8749 109.373,44.3749 111,44.5C 114.863,42.1539 119.029,40.4872 123.5,39.5C 122.687,38.1861 121.687,37.0195 120.5,36C 122.155,34.5557 122.822,32.7224 122.5,30.5C 120.037,30.7811 117.87,31.7811 116,33.5C 114.365,32.1514 112.865,32.3181 111.5,34C 114.346,34.8793 115.013,36.5459 113.5,39C 108.859,40.6513 106.193,39.1513 105.5,34.5C 106.124,29.2087 109.124,26.2087 114.5,25.5C 124.44,27.3797 127.607,33.0464 124,42.5C 119.327,47.1896 113.827,48.5229 107.5,46.5C 106.833,50.1667 106.167,53.8333 105.5,57.5C 103.021,55.9239 100.354,54.9239 97.5,54.5C 98.6351,43.8526 99.1351,33.186 99,22.5C 95.011,16.0837 89.511,11.4171 82.5,8.5C 75.888,11.9444 70.7213,16.9444 67,23.5C 66.9673,33.8465 67.4673,44.1799 68.5,54.5C 52.483,60.1582 43.3163,71.4915 41,88.5C 39.2565,100.344 41.9231,111.011 49,120.5C 49.6667,140.5 49.6667,160.5 49,180.5C 25.4347,168.369 10.768,149.369 5,123.5C 3.54781,83.5273 3.04781,43.5273 3.5,3.5 Z"/></g>
<g><path style="opacity:1" fill="#de9f1e" d="M 73.5,42.5 C 73.2627,41.209 73.596,40.209 74.5,39.5C 76.8811,40.8303 79.2144,40.6636 81.5,39C 80.9558,38.2828 80.2891,37.7828 79.5,37.5C 79.9175,36.7784 80.5842,36.2784 81.5,36C 78.5385,35.699 75.8718,35.5323 73.5,35.5C 80.3393,32.9737 87.3393,32.9737 94.5,35.5C 93.8333,35.8333 93.1667,36.1667 92.5,36.5C 89.1796,35.7026 85.8462,35.0359 82.5,34.5C 82.0541,38.8774 82.7208,43.0441 84.5,47C 83.556,48.4768 82.2226,49.4768 80.5,50C 86.0524,51.2073 86.8857,54.0406 83,58.5C 82.8265,62.5408 82.3265,66.5408 81.5,70.5C 80.1195,70.0004 79.4528,69.0004 79.5,67.5C 80.6705,64.151 80.6705,60.8177 79.5,57.5C 79.1397,60.8307 77.6397,63.4974 75,65.5C 74.3645,64.0337 73.5312,62.7003 72.5,61.5C 73.3202,59.8888 74.6536,59.2222 76.5,59.5C 77.0522,57.6693 77.0522,56.0026 76.5,54.5C 74.4414,55.567 72.608,56.9004 71,58.5C 70.6905,57.2341 70.1905,56.0674 69.5,55C 71.5466,53.9274 73.5466,52.7607 75.5,51.5C 73.8702,48.7239 73.2035,45.7239 73.5,42.5 Z"/></g>
<g><path style="opacity:1" fill="#54401d" d="M 73.5,35.5 C 75.8718,35.5323 78.5385,35.699 81.5,36C 80.5842,36.2784 79.9175,36.7784 79.5,37.5C 77.2188,37.0773 75.5521,37.744 74.5,39.5C 73.596,40.209 73.2627,41.209 73.5,42.5C 72.1667,40.1667 72.1667,37.8333 73.5,35.5 Z"/></g>
<g><path style="opacity:1" fill="#0c0904" d="M 79.5,37.5 C 80.2891,37.7828 80.9558,38.2828 81.5,39C 79.2144,40.6636 76.8811,40.8303 74.5,39.5C 75.5521,37.744 77.2188,37.0773 79.5,37.5 Z"/></g>
<g><path style="opacity:1" fill="#c58e22" d="M 85.5,37.5 C 88.0728,37.1485 90.4062,37.6485 92.5,39C 89.4298,41.2454 87.0965,40.7454 85.5,37.5 Z"/></g>
<g><path style="opacity:1" fill="#d89b1f" d="M 92.5,54.5 C 93.675,54.281 94.675,54.6143 95.5,55.5C 93.9483,56.7979 92.9483,56.4646 92.5,54.5 Z"/></g>
<g><path style="opacity:1" fill="#d09520" d="M 88.5,56.5 C 92.7478,57.5882 94.2478,60.2548 93,64.5C 91.3621,61.9239 89.8621,59.2573 88.5,56.5 Z"/></g>
<g><path style="opacity:1" fill="#d99c1e" d="M 85.5,57.5 C 87.7765,60.7203 89.1098,64.387 89.5,68.5C 88.7579,69.2868 87.9246,69.9535 87,70.5C 86.5355,66.1523 86.0355,61.819 85.5,57.5 Z"/></g>
<g><path style="opacity:1" fill="#3c2f17" d="M 108.5,60.5 C 107.833,72.8333 107.167,85.1667 106.5,97.5C 106.168,84.8158 106.501,72.1492 107.5,59.5C 108.107,59.6236 108.44,59.9569 108.5,60.5 Z"/></g>
<g><path style="opacity:1" fill="#d89b1f" d="M 108.5,60.5 C 109.794,61.2899 110.961,62.2899 112,63.5C 112.5,103.165 112.667,142.832 112.5,182.5C 111.07,182.421 109.736,182.754 108.5,183.5C 107.5,158.842 107.167,134.176 107.5,109.5C 104.482,109.665 101.482,109.498 98.5,109C 94.952,105.863 94.6187,102.363 97.5,98.5C 100.421,97.5934 103.421,97.2601 106.5,97.5C 107.167,85.1667 107.833,72.8333 108.5,60.5 Z"/></g>
<g><path style="opacity:1" fill="#e6a41c" d="M 60.5,66.5 C 62.1958,66.6854 63.5291,67.5187 64.5,69C 63.565,71.3806 63.2317,73.8806 63.5,76.5C 61.139,76.3259 58.8056,75.9926 56.5,75.5C 56.5,82.1667 56.5,88.8333 56.5,95.5C 55.5,95.5 54.5,95.5 53.5,95.5C 53.5,87.5 53.5,79.5 53.5,71.5C 55.8056,71.9926 58.139,72.3259 60.5,72.5C 59.6201,70.3888 59.6201,68.3888 60.5,66.5 Z"/></g>
<g><path style="opacity:1" fill="#e2a21d" d="M 67.5,73.5 C 68.8118,74.1451 69.8118,75.1451 70.5,76.5C 69.7695,79.1092 69.2695,81.7759 69,84.5C 67.3005,83.5939 65.4672,83.2606 63.5,83.5C 63.5,87.5 63.5,91.5 63.5,95.5C 62.5,95.5 61.5,95.5 60.5,95.5C 60.5,90.1667 60.5,84.8333 60.5,79.5C 62.2624,79.3573 63.9291,79.6906 65.5,80.5C 64.9385,77.9702 65.6051,75.6368 67.5,73.5 Z"/></g>
<g><path style="opacity:1" fill="#d69a1f" d="M 74.5,80.5 C 75.3636,81.6883 76.3636,82.8549 77.5,84C 76.565,86.3806 76.2317,88.8806 76.5,91.5C 74.139,91.3259 71.8056,90.9926 69.5,90.5C 69.5,92.1667 69.5,93.8333 69.5,95.5C 68.5,95.5 67.5,95.5 66.5,95.5C 66.5,92.5 66.5,89.5 66.5,86.5C 68.5,86.8333 70.5,87.1667 72.5,87.5C 72.1658,84.812 72.8325,82.4786 74.5,80.5 Z"/></g>
<g><path style="opacity:1" fill="#e5a41c" d="M 80.5,92.5 C 82.1667,92.5 83.8333,92.5 85.5,92.5C 85.5,94.8333 85.5,97.1667 85.5,99.5C 87.8333,99.5 90.1667,99.5 92.5,99.5C 92.5,101.167 92.5,102.833 92.5,104.5C 90.1667,104.5 87.8333,104.5 85.5,104.5C 85.5,110.5 85.5,116.5 85.5,122.5C 83.8333,122.5 82.1667,122.5 80.5,122.5C 80.5,116.5 80.5,110.5 80.5,104.5C 78.5,104.5 76.5,104.5 74.5,104.5C 74.5,102.833 74.5,101.167 74.5,99.5C 76.5,99.5 78.5,99.5 80.5,99.5C 80.5,97.1667 80.5,94.8333 80.5,92.5 Z"/></g>
<g><path style="opacity:1" fill="#e7a51c" d="M 53.5,97.5 C 58.5111,97.3341 63.5111,97.5007 68.5,98C 71.5703,100.569 72.237,103.736 70.5,107.5C 69.9747,108.192 69.3081,108.692 68.5,109C 63.5111,109.499 58.5111,109.666 53.5,109.5C 53.5,105.5 53.5,101.5 53.5,97.5 Z"/></g>
<g><path style="opacity:1" fill="#3c2f17" d="M 68.5,111.5 C 68.56,110.957 68.8933,110.624 69.5,110.5C 70.8204,118.657 70.8204,126.657 69.5,134.5C 69.8254,126.648 69.492,118.982 68.5,111.5 Z"/></g>
<g><path style="opacity:1" fill="#e7a61b" d="M 53.5,111.5 C 54.5,111.5 55.5,111.5 56.5,111.5C 56.8297,117.868 56.4963,124.202 55.5,130.5C 54.914,130.291 54.414,129.957 54,129.5C 53.5005,123.509 53.3338,117.509 53.5,111.5 Z"/></g>
<g><path style="opacity:1" fill="#e6a51c" d="M 60.5,111.5 C 61.5,111.5 62.5,111.5 63.5,111.5C 63.8303,118.532 63.497,125.532 62.5,132.5C 61.914,132.291 61.414,131.957 61,131.5C 60.5004,124.842 60.3337,118.175 60.5,111.5 Z"/></g>
<g><path style="opacity:1" fill="#e5a41c" d="M 68.5,111.5 C 69.492,118.982 69.8254,126.648 69.5,134.5C 68.5041,134.586 67.6708,134.252 67,133.5C 66.8333,129.833 66.6667,126.167 66.5,122.5C 66.5112,118.435 67.1778,114.768 68.5,111.5 Z"/></g>
<g><path style="opacity:1" fill="#fdfcfc" d="M -0.5,116.5 C 6.4846,157.818 30.4846,182.818 71.5,191.5C 47.5,191.5 23.5,191.5 -0.5,191.5C -0.5,166.5 -0.5,141.5 -0.5,116.5 Z"/></g>
<g><path style="opacity:1" fill="#fcfcfc" d="M 165.5,118.5 C 165.5,142.833 165.5,167.167 165.5,191.5C 141.167,191.5 116.833,191.5 92.5,191.5C 133.186,183.481 157.519,159.148 165.5,118.5 Z"/></g>
</svg>

<svg xmlns="http://www.w3.org/2000/svg" width="166" height="192" style="shape-rendering:geometricPrecision;text-rendering:geometricPrecision;image-rendering:optimizeQuality;fill-rule:evenodd;clip-rule:evenodd"><path style="opacity:1" fill="#080603" d="M-.5-.5h166v119c-7.981 40.648-32.314 64.981-73 73h-21c-41.015-8.682-65.015-33.682-72-75V-.5z"/><path style="opacity:1" fill="#e6a51c" d="M3.5 3.5h158c.167 38.335 0 76.668-.5 115-4.281 27.758-18.781 48.091-43.5 61a600.697 600.697 0 0 1-.5-60c6.047-7.165 8.88-15.498 8.5-25 .241-12.451-3.925-23.118-12.5-32a50.464 50.464 0 0 1-.5-10c14.12-.946 19.62-8.28 16.5-22-5.282-9.33-12.782-11.496-22.5-6.5-6.59 6.409-6.59 12.742 0 19a9.622 9.622 0 0 0 4.5 1.5 40.894 40.894 0 0 1 12.5-5 14.984 14.984 0 0 0-3-3.5c1.655-1.444 2.322-3.278 2-5.5-2.463.281-4.63 1.281-6.5 3-1.635-1.349-3.135-1.182-4.5.5 2.846.88 3.513 2.546 2 5-4.641 1.651-7.307.151-8-4.5.624-5.291 3.624-8.291 9-9 9.94 1.88 13.107 7.546 9.5 17-4.673 4.69-10.173 6.023-16.5 4l-2 11c-2.479-1.576-5.146-2.576-8-3a269.465 269.465 0 0 0 1.5-32c-3.989-6.416-9.489-11.083-16.5-14-6.612 3.444-11.779 8.444-15.5 15a301.564 301.564 0 0 0 1.5 31c-16.017 5.658-25.184 16.992-27.5 34-1.743 11.844.923 22.511 8 32 .667 20 .667 40 0 60-23.565-12.131-38.232-31.131-44-57a2520.55 2520.55 0 0 1-1.5-120z"/><path style="opacity:1" fill="#de9f1e" d="M73.5 42.5c-.237-1.291.096-2.291 1-3 2.381 1.33 4.714 1.164 7-.5-.544-.717-1.21-1.217-2-1.5.418-.722 1.084-1.222 2-1.5-2.962-.301-5.628-.468-8-.5 6.84-2.526 13.84-2.526 21 0l-2 1a132.626 132.626 0 0 0-10-2c-.446 4.377.22 8.544 2 12.5-.944 1.477-2.277 2.477-4 3 5.552 1.207 6.386 4.04 2.5 8.5a74.203 74.203 0 0 1-1.5 12c-1.38-.5-2.047-1.5-2-3 1.17-3.349 1.17-6.682 0-10-.36 3.33-1.86 5.997-4.5 8a15.653 15.653 0 0 0-2.5-4c.82-1.611 2.154-2.278 4-2 .552-1.83.552-3.497 0-5a22.288 22.288 0 0 0-5.5 4 11.362 11.362 0 0 0-1.5-3.5 76.832 76.832 0 0 0 6-3.5c-1.63-2.776-2.296-5.776-2-9z"/><path style="opacity:1" fill="#54401d" d="M73.5 35.5c2.372.032 5.038.199 8 .5-.916.278-1.582.778-2 1.5-2.281-.423-3.948.244-5 2-.904.709-1.237 1.709-1 3-1.333-2.333-1.333-4.667 0-7z"/><path style="opacity:1" fill="#0c0904" d="M79.5 37.5c.79.283 1.456.783 2 1.5-2.286 1.664-4.619 1.83-7 .5 1.052-1.756 2.719-2.423 5-2z"/><path style="opacity:1" fill="#c58e22" d="M85.5 37.5c2.573-.352 4.906.148 7 1.5-3.07 2.245-5.403 1.745-7-1.5z"/><path style="opacity:1" fill="#d89b1f" d="M92.5 54.5c1.175-.219 2.175.114 3 1-1.552 1.298-2.552.965-3-1z"/><path style="opacity:1" fill="#d09520" d="M88.5 56.5c4.248 1.088 5.748 3.755 4.5 8a85.365 85.365 0 0 1-4.5-8z"/><path style="opacity:1" fill="#d99c1e" d="M85.5 57.5c2.276 3.22 3.61 6.887 4 11a11.383 11.383 0 0 1-2.5 2 773.272 773.272 0 0 0-1.5-13z"/><path style="opacity:1" fill="#3c2f17" d="m108.5 60.5-2 37a362.008 362.008 0 0 1 1-38c.607.124.94.457 1 1z"/><path style="opacity:1" fill="#d89b1f" d="M108.5 60.5c1.294.79 2.461 1.79 3.5 3 .5 39.665.667 79.332.5 119a6.846 6.846 0 0 0-4 1c-1-24.658-1.333-49.324-1-74a40.914 40.914 0 0 1-9-.5c-3.548-3.137-3.881-6.637-1-10.5a23.842 23.842 0 0 1 9-1l2-37z"/><path style="opacity:1" fill="#e6a41c" d="M60.5 66.5c1.696.185 3.03 1.019 4 2.5-.935 2.38-1.268 4.88-1 7.5a51.639 51.639 0 0 1-7-1v20h-3v-24c2.306.493 4.639.826 7 1-.88-2.111-.88-4.111 0-6z"/><path style="opacity:1" fill="#e2a21d" d="M67.5 73.5c1.312.645 2.312 1.645 3 3a46.65 46.65 0 0 0-1.5 8c-1.7-.906-3.533-1.24-5.5-1v12h-3v-16a9.106 9.106 0 0 1 5 1c-.561-2.53.105-4.863 2-7z"/><path style="opacity:1" fill="#d69a1f" d="M74.5 80.5a30.139 30.139 0 0 0 3 3.5c-.935 2.38-1.268 4.88-1 7.5a51.639 51.639 0 0 1-7-1v5h-3v-9l6 1c-.334-2.688.332-5.021 2-7z"/><path style="opacity:1" fill="#e5a41c" d="M80.5 92.5h5v7h7v5h-7v18h-5v-18h-6v-5h6v-7z"/><path style="opacity:1" fill="#e7a51c" d="M53.5 97.5c5.011-.166 10.011 0 15 .5 3.07 2.569 3.737 5.736 2 9.5a4.458 4.458 0 0 1-2 1.5 112.97 112.97 0 0 1-15 .5v-12z"/><path style="opacity:1" fill="#3c2f17" d="M68.5 111.5c.06-.543.393-.876 1-1 1.32 8.157 1.32 16.157 0 24 .325-7.852-.008-15.518-1-23z"/><path style="opacity:1" fill="#e7a61b" d="M53.5 111.5h3a91.123 91.123 0 0 1-1 19 3.647 3.647 0 0 1-1.5-1c-.5-5.991-.666-11.991-.5-18z"/><path style="opacity:1" fill="#e6a51c" d="M60.5 111.5h3c.33 7.032-.003 14.032-1 21a3.647 3.647 0 0 1-1.5-1c-.5-6.658-.666-13.325-.5-20z"/><path style="opacity:1" fill="#e5a41c" d="M68.5 111.5c.992 7.482 1.325 15.148 1 23-.996.086-1.83-.248-2.5-1l-.5-11c.011-4.065.678-7.732 2-11z"/><path style="opacity:1" fill="#fdfcfc" d="M-.5 116.5c6.985 41.318 30.985 66.318 72 75h-72v-75z"/><path style="opacity:1" fill="#fcfcfc" d="M165.5 118.5v73h-73c40.686-8.019 65.019-32.352 73-73z"/></svg>
